;FLAVOR:Marlin
;TIME:2336
;Filament used: 1.60651m
;Layer height: 0.15
;MINX:93.509
;MINY:43.335
;MINZ:0.36
;MAXX:126.533
;MAXY:176.664
;MAXZ:5.385
;Generated with Cura_SteamEngine 4.8
M140 S60
M105
M190 S60
M104 S200
M105
M109 S200
M82 ;absolute extrusion mode
G28 ;Home
G1 Z15.0 F2000 ;Move the platform
G92 E0
G92 E0
G1 F1500 E-6.5
;LAYER_COUNT:29
;LAYER:-7
M107
M204 S1000
G0 F9000 X96.37 Y51.918 Z0.36
;TYPE:SUPPORT-INTERFACE
G1 F1500 E0
G1 F1125 X96.437 Y51.801 E0.01614
G1 X96.911 Y51.022 E0.12533
G1 X97.011 Y50.871 E0.14701
G1 X97.522 Y50.157 E0.25214
G1 X97.635 Y50.009 E0.27444
G1 X98.211 Y49.318 E0.38215
G1 X98.312 Y49.205 E0.4003
G1 X98.937 Y48.556 E0.50819
G1 X99.062 Y48.436 E0.52893
G1 X99.733 Y47.833 E0.63695
G1 X99.849 Y47.737 E0.65498
G1 X100.561 Y47.187 E0.76271
G1 X100.72 Y47.074 E0.78606
G1 X101.458 Y46.584 E0.89213
G1 X101.584 Y46.508 E0.90975
G1 X102.378 Y46.062 E1.01879
G1 X102.528 Y45.984 E1.03904
G1 X103.343 Y45.601 E1.14686
G1 X103.486 Y45.541 E1.16543
G1 X104.345 Y45.212 E1.27557
G1 X104.495 Y45.16 E1.29458
G1 X105.345 Y44.905 E1.40083
G1 X105.518 Y44.858 E1.4223
G1 X106.413 Y44.658 E1.53211
G1 X106.543 Y44.635 E1.54791
G1 X107.448 Y44.501 E1.65746
G1 X107.617 Y44.483 E1.67781
G1 X108.506 Y44.417 E1.78455
G1 X108.69 Y44.408 E1.8066
G1 X109.195 Y44.4 E1.86708
G1 X110.871 Y44.401 E2.06776
G1 X111.872 Y44.437 E2.18769
G1 X111.995 Y44.446 E2.20246
G1 X112.912 Y44.548 E2.31293
G1 X113.087 Y44.573 E2.3341
G1 X113.976 Y44.737 E2.44234
G1 X114.099 Y44.765 E2.45745
G1 X114.993 Y44.999 E2.5681
G1 X115.156 Y45.048 E2.58848
G1 X115.998 Y45.334 E2.69495
G1 X116.164 Y45.398 E2.71625
G1 X116.967 Y45.739 E2.82071
G1 X117.156 Y45.827 E2.84568
G1 X117.95 Y46.235 E2.95256
G1 X118.067 Y46.302 E2.96871
G1 X118.846 Y46.776 E3.07789
G1 X118.997 Y46.876 E3.09958
G1 X119.711 Y47.387 E3.20471
G1 X119.859 Y47.5 E3.227
G1 X120.55 Y48.076 E3.33472
G1 X120.663 Y48.177 E3.35286
G1 X121.312 Y48.802 E3.46075
G1 X121.432 Y48.927 E3.4815
G1 X122.035 Y49.598 E3.58952
G1 X122.131 Y49.714 E3.60754
G1 X122.69 Y50.438 E3.71707
G1 X122.784 Y50.569 E3.73637
G1 X123.284 Y51.323 E3.8447
G1 X123.36 Y51.449 E3.86232
G1 X123.806 Y52.243 E3.97136
G1 X123.884 Y52.393 E3.9916
G1 X124.267 Y53.208 E4.09943
G1 X124.327 Y53.351 E4.118
G1 X124.656 Y54.21 E4.22814
G1 X124.708 Y54.36 E4.24715
G1 X124.963 Y55.21 E4.3534
G1 X125.01 Y55.383 E4.37487
G1 X125.208 Y56.269 E4.48357
G1 X125.233 Y56.408 E4.50048
G1 X125.366 Y57.307 E4.6093
G1 X125.384 Y57.469 E4.62881
G1 X125.451 Y58.371 E4.73711
G1 X125.46 Y58.555 E4.75917
G1 X125.468 Y59.056 E4.81917
G1 X125.468 Y160.986 E17.02391
G1 X125.432 Y161.992 E17.14444
G1 X125.422 Y162.127 E17.16065
G1 X125.32 Y163.044 E17.27112
G1 X125.295 Y163.219 E17.29229
G1 X125.133 Y164.097 E17.39919
G1 X125.103 Y164.231 E17.41563
G1 X124.872 Y165.116 E17.52515
G1 X124.82 Y165.288 E17.54667
G1 X124.544 Y166.1 E17.64936
G1 X124.464 Y166.309 E17.67615
G1 X124.129 Y167.099 E17.7789
G1 X124.048 Y167.274 E17.80199
G1 X123.633 Y168.082 E17.91075
G1 X123.566 Y168.199 E17.92689
G1 X123.092 Y168.978 E18.03608
G1 X122.992 Y169.129 E18.05776
G1 X122.481 Y169.843 E18.16289
G1 X122.368 Y169.991 E18.18519
G1 X121.792 Y170.682 E18.2929
G1 X121.691 Y170.795 E18.31105
G1 X121.066 Y171.444 E18.41893
G1 X120.941 Y171.564 E18.43968
G1 X120.271 Y172.166 E18.54753
G1 X120.154 Y172.263 E18.56573
G1 X119.442 Y172.813 E18.67345
G1 X119.283 Y172.926 E18.69681
G1 X118.545 Y173.416 E18.80288
G1 X118.419 Y173.492 E18.8205
G1 X117.625 Y173.938 E18.92954
G1 X117.474 Y174.016 E18.94989
G1 X116.66 Y174.399 E19.05761
G1 X116.517 Y174.459 E19.07617
G1 X115.658 Y174.788 E19.18631
G1 X115.508 Y174.84 E19.20532
G1 X114.658 Y175.095 E19.31158
G1 X114.485 Y175.142 E19.33305
G1 X113.59 Y175.342 E19.44285
G1 X113.46 Y175.365 E19.45866
G1 X112.555 Y175.499 E19.5682
G1 X112.387 Y175.517 E19.58843
G1 X111.497 Y175.583 E19.69529
G1 X111.313 Y175.592 E19.71735
G1 X110.808 Y175.6 E19.77782
G1 X109.132 Y175.599 E19.9785
G1 X108.131 Y175.563 E20.09844
G1 X108.008 Y175.554 E20.1132
G1 X107.091 Y175.452 E20.22368
G1 X106.916 Y175.427 E20.24485
G1 X106.027 Y175.263 E20.35309
G1 X105.904 Y175.235 E20.36819
G1 X105.01 Y175.001 E20.47884
G1 X104.847 Y174.952 E20.49922
G1 X104.005 Y174.666 E20.6057
G1 X103.839 Y174.602 E20.627
G1 X103.036 Y174.261 E20.73146
G1 X102.847 Y174.173 E20.75642
G1 X102.053 Y173.765 E20.86331
G1 X101.936 Y173.698 E20.87945
G1 X101.157 Y173.224 E20.98864
G1 X101.006 Y173.124 E21.01032
G1 X100.292 Y172.613 E21.11545
G1 X100.144 Y172.5 E21.13775
G1 X99.453 Y171.924 E21.24546
G1 X99.34 Y171.823 E21.26361
G1 X98.691 Y171.198 E21.37149
G1 X98.571 Y171.073 E21.39224
G1 X97.968 Y170.402 E21.50026
G1 X97.871 Y170.284 E21.51855
G1 X97.313 Y169.562 E21.62781
G1 X97.209 Y169.415 E21.64937
G1 X96.716 Y168.672 E21.75614
G1 X96.643 Y168.551 E21.77306
G1 X96.191 Y167.746 E21.8836
G1 X96.119 Y167.607 E21.90234
G1 X95.722 Y166.761 E22.01424
G1 X95.676 Y166.649 E22.02874
G1 X95.347 Y165.79 E22.13888
G1 X95.29 Y165.625 E22.15978
G1 X95.04 Y164.79 E22.26414
G1 X94.993 Y164.617 E22.28561
G1 X94.792 Y163.716 E22.39614
G1 X94.77 Y163.592 E22.41122
G1 X94.635 Y162.678 E22.52185
G1 X94.618 Y162.518 E22.54112
G1 X94.552 Y161.626 E22.64821
G1 X94.543 Y161.445 E22.66991
G1 X94.535 Y160.944 E22.72991
G1 X94.535 Y59.014 E34.93465
G1 X94.571 Y58.008 E35.05518
G1 X94.581 Y57.873 E35.07139
G1 X94.683 Y56.956 E35.18186
G1 X94.708 Y56.781 E35.20303
G1 X94.87 Y55.903 E35.30993
G1 X94.9 Y55.769 E35.32637
G1 X95.131 Y54.884 E35.43589
G1 X95.183 Y54.712 E35.45741
G1 X95.469 Y53.87 E35.56388
G1 X95.533 Y53.704 E35.58518
G1 X95.874 Y52.901 E35.68964
G1 X95.955 Y52.726 E35.71273
G1 X96.37 Y51.918 E35.8215
G0 F9000 X96 Y52.638
G1 F1125 X96 Y167.353 E49.55707
G0 F9000 X97.6 Y169.933
G1 F1125 X97.6 Y50.054 E63.91096
G0 F9000 X99.2 Y48.311
G1 F1125 X99.2 Y171.688 E78.68368
G0 F9000 X100.8 Y172.976
G1 F1125 X100.8 Y47.02 E93.76521
G0 F9000 X102.4 Y46.05
G1 F1125 X102.4 Y173.943 E109.07867
G0 F9000 X104 Y174.664
G1 F1125 X104 Y45.344 E124.56299
G0 F9000 X105.6 Y44.839
G1 F1125 X105.6 Y175.155 E140.16657
G0 F9000 X107.2 Y175.464
G1 F1125 X107.2 Y44.537 E155.84331
G0 F9000 X108.8 Y44.406
G1 F1125 X108.8 Y175.587 E171.55047
G0 F9000 X110.4 Y175.599
G1 F1125 X110.4 Y44.401 E187.25965
G0 F9000 X112 Y44.447
G1 F1125 X112 Y175.546 E202.95699
G0 F9000 X113.6 Y175.34
G1 F1125 X113.6 Y44.668 E218.60319
G0 F9000 X115.2 Y45.063
G1 F1125 X115.2 Y174.933 E234.15337
G0 F9000 X116.8 Y174.334
G1 F1125 X116.8 Y45.669 E249.55926
G0 F9000 X118.4 Y46.505
G1 F1125 X118.4 Y173.503 E264.76556
G0 F9000 X120 Y172.382
G1 F1125 X120 Y47.618 E279.70436
G0 F9000 X121.6 Y49.114
G1 F1125 X121.6 Y170.89 E294.28539
G0 F9000 X123.2 Y168.801
G1 F1125 X123.2 Y51.197 E308.36688
G0 F9000 X124.8 Y54.667
G1 F1125 X124.8 Y165.347 E321.61932
G0 F300 X124.8 Y165.347 Z0.585
G0 F9000 X124.047 Y167.273
;TIME_ELAPSED:150.294982
;LAYER:-6
;TYPE:SUPPORT
G1 F1125 X124.129 Y167.098 E321.63378
G1 X124.29 Y166.717 E321.66473
G1 X94.534 Y136.96 E324.81396
G1 X94.534 Y135.546 E324.91977
G1 X124.682 Y165.694 E328.11043
G1 X124.819 Y165.287 E328.14257
G1 X124.872 Y165.115 E328.15603
G1 X125.005 Y164.603 E328.19562
G1 X94.534 Y134.132 E331.42046
G1 X94.534 Y132.718 E331.52628
G1 X125.254 Y163.438 E334.77747
G1 X125.295 Y163.218 E334.79422
G1 X125.32 Y163.043 E334.80745
G1 X125.415 Y162.184 E334.87212
G1 X94.534 Y131.304 E338.1403
G1 X94.534 Y129.889 E338.2462
G1 X125.467 Y160.822 E341.51993
G1 X125.467 Y159.408 E341.62575
G1 X94.534 Y128.475 E344.89948
G1 X94.534 Y127.061 E345.0053
G1 X125.467 Y157.994 E348.27904
G1 X125.467 Y156.58 E348.38485
G1 X94.534 Y125.647 E351.65859
G1 X94.534 Y124.233 E351.76441
G1 X125.467 Y155.166 E355.03814
G1 X125.467 Y153.751 E355.14403
G1 X94.534 Y122.818 E358.41777
G1 X94.534 Y121.404 E358.52358
G1 X125.467 Y152.337 E361.79732
G1 X125.467 Y150.923 E361.90314
G1 X94.534 Y119.99 E365.17687
G1 X94.534 Y118.576 E365.28269
G1 X125.467 Y149.509 E368.55643
G1 X125.467 Y148.095 E368.66224
G1 X94.534 Y117.161 E371.93603
G1 X94.534 Y115.747 E372.04185
G1 X125.467 Y146.68 E375.31558
G1 X125.467 Y145.266 E375.4214
G1 X94.534 Y114.333 E378.69514
G1 X94.534 Y112.919 E378.80095
G1 X125.467 Y143.852 E382.07469
G1 X125.467 Y142.438 E382.18051
G1 X94.534 Y111.505 E385.45424
G1 X94.534 Y110.09 E385.56013
G1 X125.467 Y141.023 E388.83387
G1 X125.467 Y139.609 E388.93968
G1 X94.534 Y108.676 E392.21342
G1 X94.534 Y107.262 E392.31924
G1 X125.467 Y138.195 E395.59297
G1 X125.467 Y136.781 E395.69879
G1 X94.534 Y105.848 E398.97253
G1 X94.534 Y104.434 E399.07834
G1 X125.467 Y135.367 E402.35208
G1 X125.467 Y133.952 E402.45797
G1 X94.534 Y103.019 E405.7317
G1 X94.534 Y101.605 E405.83752
G1 X125.467 Y132.538 E409.11126
G1 X125.467 Y131.124 E409.21707
G1 X94.534 Y100.191 E412.49081
G1 X94.534 Y98.777 E412.59663
G1 X125.467 Y129.71 E415.87036
G1 X125.467 Y128.296 E415.97618
G1 X94.534 Y97.362 E419.24997
G1 X94.534 Y95.948 E419.35578
G1 X125.467 Y126.881 E422.62952
G1 X125.467 Y125.467 E422.73534
G1 X94.534 Y94.534 E426.00907
G1 X94.534 Y93.12 E426.11489
G1 X125.467 Y124.053 E429.38862
G1 X125.467 Y122.639 E429.49444
G1 X94.534 Y91.706 E432.76818
G1 X94.534 Y90.291 E432.87407
G1 X125.467 Y121.224 E436.1478
G1 X125.467 Y119.81 E436.25362
G1 X94.534 Y88.877 E439.52736
G1 X94.534 Y87.463 E439.63317
G1 X125.467 Y118.396 E442.90691
G1 X125.467 Y116.982 E443.01273
G1 X94.534 Y86.049 E446.28646
G1 X94.534 Y84.635 E446.39228
G1 X125.467 Y115.568 E449.66601
G1 X125.467 Y114.153 E449.77191
G1 X94.534 Y83.22 E453.04564
G1 X94.534 Y81.806 E453.15146
G1 X125.467 Y112.739 E456.42519
G1 X125.467 Y111.325 E456.53101
G1 X94.534 Y80.392 E459.80475
G1 X94.534 Y78.978 E459.91056
G1 X125.467 Y109.911 E463.1843
G1 X125.467 Y108.497 E463.29012
G1 X94.534 Y77.563 E466.5639
G1 X94.534 Y76.149 E466.66972
G1 X125.467 Y107.082 E469.94346
G1 X125.467 Y105.668 E470.04927
G1 X94.534 Y74.735 E473.32301
G1 X94.534 Y73.321 E473.42883
G1 X125.467 Y104.254 E476.70256
G1 X125.467 Y102.84 E476.80838
G1 X94.534 Y71.907 E480.08211
G1 X94.534 Y70.492 E480.18801
G1 X125.467 Y101.425 E483.46174
G1 X125.467 Y100.011 E483.56756
G1 X94.534 Y69.078 E486.84129
G1 X94.534 Y67.664 E486.94711
G1 X125.467 Y98.597 E490.22085
G1 X125.467 Y97.183 E490.32666
G1 X94.534 Y66.25 E493.6004
G1 X94.534 Y64.836 E493.70622
G1 X125.467 Y95.769 E496.97995
G1 X125.467 Y94.354 E497.08584
G1 X94.534 Y63.421 E500.35958
G1 X94.534 Y62.007 E500.4654
G1 X125.467 Y92.94 E503.73913
G1 X125.467 Y91.526 E503.84495
G1 X94.534 Y60.593 E507.11868
G1 X94.534 Y59.179 E507.2245
G1 X125.467 Y90.112 E510.49824
G1 X125.467 Y88.698 E510.60405
G1 X94.586 Y57.816 E513.87234
G1 X94.682 Y56.955 E513.93717
G1 X94.707 Y56.78 E513.9504
G1 X94.746 Y56.562 E513.96697
G1 X125.467 Y87.283 E517.21827
G1 X125.467 Y85.869 E517.32409
G1 X94.995 Y55.397 E520.54903
G1 X95.129 Y54.884 E520.58871
G1 X95.182 Y54.711 E520.60225
G1 X95.319 Y54.307 E520.63418
G1 X125.467 Y84.455 E523.82483
G1 X125.467 Y83.041 E523.93065
G1 X95.71 Y53.284 E527.07993
G1 X95.873 Y52.9 E527.11115
G1 X95.954 Y52.726 E527.12551
G1 X96.161 Y52.32 E527.15961
G1 X125.467 Y81.626 E530.26116
G1 X125.467 Y80.212 E530.36698
G1 X96.67 Y51.415 E533.41465
G1 X96.91 Y51.021 E533.44918
G1 X97.01 Y50.871 E533.46267
G1 X97.23 Y50.561 E533.49111
G1 X125.467 Y78.798 E536.47952
G1 X125.467 Y77.384 E536.58534
G1 X97.842 Y49.759 E539.50898
G1 X98.21 Y49.317 E539.55202
G1 X98.311 Y49.205 E539.56331
G1 X98.502 Y49.005 E539.584
G1 X125.467 Y75.97 E542.43779
G1 X125.467 Y74.555 E542.54368
G1 X99.212 Y48.3 E545.32233
G1 X99.731 Y47.832 E545.37463
G1 X99.848 Y47.737 E545.38591
G1 X99.97 Y47.644 E545.39739
G1 X125.467 Y73.141 E548.09582
G1 X125.467 Y71.727 E548.20163
G1 X100.776 Y47.036 E550.81476
G1 X101.457 Y46.584 E550.87593
G1 X101.582 Y46.507 E550.88691
G1 X101.633 Y46.479 E550.89127
G1 X125.467 Y70.313 E553.41369
G1 X125.467 Y68.899 E553.51951
G1 X102.544 Y45.976 E555.94552
G1 X103.342 Y45.601 E556.01151
G1 X103.485 Y45.541 E556.02311
G1 X103.514 Y45.531 E556.02541
G1 X125.467 Y67.484 E558.34876
G1 X125.467 Y66.07 E558.45458
G1 X104.542 Y45.145 E560.66913
G1 X105.344 Y44.904 E560.7318
G1 X105.517 Y44.857 E560.74522
G1 X105.641 Y44.83 E560.75472
G1 X125.467 Y64.656 E562.85296
G1 X125.467 Y63.242 E562.95878
G1 X106.819 Y44.594 E564.93236
G1 X107.447 Y44.501 E564.97987
G1 X107.615 Y44.482 E564.99252
G1 X108.087 Y44.448 E565.02793
G1 X125.467 Y61.828 E566.86731
G1 X125.467 Y60.413 E566.9732
G1 X109.454 Y44.4 E568.66791
G1 X110.868 Y44.4 E568.77373
G1 X125.466 Y58.998 E570.31868
G1 X125.459 Y58.555 E570.35183
G1 X125.449 Y58.37 E570.3657
G1 X125.386 Y57.504 E570.43068
G1 X112.37 Y44.488 E571.8082
G1 X112.911 Y44.548 E571.84893
G1 X113.086 Y44.573 E571.86216
G1 X113.975 Y44.737 E571.92982
G1 X114.05 Y44.754 E571.93557
G1 X125.104 Y55.808 E573.10545
G1 X125.009 Y55.383 E573.13804
G1 X124.962 Y55.21 E573.15146
G1 X124.707 Y54.36 E573.21787
G1 X124.655 Y54.21 E573.22975
G1 X124.49 Y53.779 E573.26428
G1 X116.074 Y45.363 E574.15497
G1 X116.163 Y45.397 E574.1621
G1 X116.966 Y45.739 E574.22742
G1 X117.155 Y45.826 E574.24299
G1 X117.949 Y46.234 E574.3098
G1 X118.066 Y46.302 E574.31992
G1 X118.845 Y46.775 E574.38812
G1 X118.996 Y46.875 E574.40168
G1 X119.011 Y46.886 E574.40307
G1 X122.959 Y50.834 E574.8209
G0 F9000 X122.783 Y50.569
G1 F1125 X122.688 Y50.437 E574.83307
G1 X122.13 Y49.713 E574.90148
G1 X122.033 Y49.597 E574.91279
G1 X121.431 Y48.927 E574.9802
G1 X121.311 Y48.801 E574.99322
G1 X120.662 Y48.176 E575.06065
G1 X120.548 Y48.076 E575.07199
G1 X119.858 Y47.499 E575.13931
G1 X119.71 Y47.387 E575.1532
G1 X119.011 Y46.886 E575.21755
G1 F1500 E568.71755
G0 F9000 X119.63 Y46.02
G0 X121.251 Y47.275
G0 X122.208 Y48.198
G0 X123.541 Y49.798
G0 X124.283 Y50.918
G0 X125.243 Y52.783
G0 X125.724 Y54.042
G0 X126.253 Y56.066
G0 X126.444 Y57.379
G0 X126.533 Y59.053
G0 X126.494 Y162.057
G0 X126.347 Y163.383
G0 X125.895 Y165.41
G0 X125.771 Y165.775
G0 X125.099 Y167.538
G0 X124.047 Y167.273
G1 F1500 E575.21755
G1 F1125 X123.839 Y167.679 E575.25169
G1 X94.534 Y138.375 E578.35308
G1 X94.534 Y139.789 E578.4589
G1 X123.33 Y168.585 E581.50647
G1 X123.091 Y168.977 E581.54082
G1 X122.992 Y169.127 E581.55427
G1 X122.77 Y169.439 E581.58293
G1 X94.534 Y141.203 E584.57123
G1 X94.534 Y142.617 E584.67705
G1 X122.159 Y170.242 E587.60069
G1 X121.792 Y170.681 E587.64351
G1 X121.69 Y170.793 E587.65485
G1 X121.497 Y170.995 E587.67575
G1 X94.534 Y144.031 E590.52938
G1 X94.534 Y145.446 E590.63528
G1 X120.788 Y171.7 E593.41382
G1 X120.271 Y172.165 E593.46586
G1 X120.154 Y172.262 E593.47723
G1 X120.031 Y172.357 E593.48886
G1 X94.534 Y146.86 E596.18729
G1 X94.534 Y148.274 E596.2931
G1 X119.223 Y172.963 E598.90602
G1 X118.545 Y173.415 E598.967
G1 X118.419 Y173.491 E598.97801
G1 X118.366 Y173.52 E598.98253
G1 X94.534 Y149.688 E601.50474
G1 X94.534 Y151.103 E601.61064
G1 X117.455 Y174.023 E604.03638
G1 X116.659 Y174.397 E604.1022
G1 X116.517 Y174.458 E604.11377
G1 X116.487 Y174.47 E604.11618
G1 X94.534 Y152.517 E606.43954
G1 X94.534 Y153.931 E606.54535
G1 X115.457 Y174.854 E608.7597
G1 X114.658 Y175.094 E608.82213
G1 X114.485 Y175.141 E608.83555
G1 X114.358 Y175.169 E608.84528
G1 X94.534 Y155.345 E610.94332
G1 X94.534 Y156.759 E611.04913
G1 X113.18 Y175.405 E613.0225
G1 X112.554 Y175.498 E613.06986
G1 X112.386 Y175.515 E613.0825
G1 X111.911 Y175.551 E613.11814
G1 X94.534 Y158.174 E614.95721
G1 X94.534 Y159.588 E615.06302
G1 X110.544 Y175.598 E616.75741
G1 X109.132 Y175.598 E616.86308
G0 F9000 X109.129 Y175.597
G1 F1125 X94.535 Y161.003 E618.40761
G1 X94.543 Y161.443 E618.44054
G1 X94.552 Y161.625 E618.45418
G1 X94.616 Y162.498 E618.51968
G1 X107.628 Y175.51 E619.89678
G1 X107.091 Y175.451 E619.93721
G1 X106.915 Y175.426 E619.95052
G1 X106.027 Y175.262 E620.01809
G1 X105.947 Y175.244 E620.02423
G1 X94.898 Y164.195 E621.19358
G1 X94.992 Y164.615 E621.22579
G1 X95.04 Y164.789 E621.2393
G1 X95.289 Y165.624 E621.3045
G1 X95.346 Y165.788 E621.31749
G1 X95.513 Y166.223 E621.35236
G1 X103.922 Y174.632 E622.24232
G1 X103.839 Y174.6 E622.24897
G1 X103.036 Y174.26 E622.31423
G1 X102.846 Y174.172 E622.3299
G1 X102.052 Y173.764 E622.3967
