;FLAVOR:Marlin
;TIME:22295
;Filament used: 16.3038m
;Layer height: 0.15
;MINX:44.335
;MINY:28.836
;MINZ:0.36
;MAXX:175.665
;MAXY:191.165
;MAXZ:8.985
;Generated with Cura_SteamEngine 4.8
M140 S60
M105
M190 S60
M104 S200
M105
M109 S200
M82 ;absolute extrusion mode
G28 ;Home
G1 Z15.0 F2000 ;Move the platform
G92 E0
G92 E0
G1 F1500 E-6.5
;LAYER_COUNT:52
;LAYER:-7
M107
M204 S1000
G0 F9000 X48.387 Y35.657 Z0.36
;TYPE:SUPPORT-INTERFACE
G1 F1500 E0
G1 F1125 X48.5 Y35.509 E0.0223
G1 X49.076 Y34.818 E0.13001
G1 X49.177 Y34.705 E0.14816
G1 X49.802 Y34.056 E0.25604
G1 X49.927 Y33.936 E0.27679
G1 X50.598 Y33.333 E0.38481
G1 X50.714 Y33.237 E0.40284
G1 X51.426 Y32.687 E0.51056
G1 X51.585 Y32.574 E0.53392
G1 X52.323 Y32.084 E0.63999
G1 X52.449 Y32.008 E0.65761
G1 X53.243 Y31.562 E0.76665
G1 X53.393 Y31.484 E0.78689
G1 X54.208 Y31.101 E0.89472
G1 X54.351 Y31.041 E0.91328
G1 X55.21 Y30.712 E1.02342
G1 X55.36 Y30.66 E1.04243
G1 X56.21 Y30.405 E1.14869
G1 X56.383 Y30.358 E1.17016
G1 X57.278 Y30.158 E1.27996
G1 X57.408 Y30.135 E1.29577
G1 X58.313 Y30.001 E1.40531
G1 X58.482 Y29.983 E1.42566
G1 X59.371 Y29.917 E1.5324
G1 X59.555 Y29.908 E1.55446
G1 X60.06 Y29.9 E1.61493
G1 X160.003 Y29.901 E13.58176
G1 X161.004 Y29.937 E13.70169
G1 X161.127 Y29.946 E13.71646
G1 X162.044 Y30.048 E13.82693
G1 X162.219 Y30.073 E13.8481
G1 X163.108 Y30.237 E13.95634
G1 X163.231 Y30.265 E13.97145
G1 X164.125 Y30.499 E14.0821
G1 X164.288 Y30.548 E14.10248
G1 X165.13 Y30.834 E14.20895
G1 X165.296 Y30.898 E14.23025
G1 X166.099 Y31.239 E14.33471
G1 X166.288 Y31.327 E14.35968
G1 X167.082 Y31.735 E14.46656
G1 X167.199 Y31.802 E14.48271
G1 X167.978 Y32.276 E14.59189
G1 X168.129 Y32.376 E14.61358
G1 X168.843 Y32.887 E14.71871
G1 X168.991 Y33 E14.741
G1 X169.682 Y33.576 E14.84872
G1 X169.795 Y33.677 E14.86687
G1 X170.444 Y34.302 E14.97475
G1 X170.564 Y34.427 E14.9955
G1 X171.167 Y35.098 E15.10352
G1 X171.263 Y35.214 E15.12154
G1 X171.822 Y35.938 E15.23107
G1 X171.916 Y36.069 E15.25037
G1 X172.416 Y36.823 E15.3587
G1 X172.492 Y36.949 E15.37632
G1 X172.938 Y37.743 E15.48536
G1 X173.016 Y37.893 E15.5056
G1 X173.399 Y38.708 E15.61343
G1 X173.459 Y38.851 E15.632
G1 X173.788 Y39.71 E15.74214
G1 X173.84 Y39.86 E15.76115
G1 X174.095 Y40.71 E15.8674
G1 X174.142 Y40.883 E15.88887
G1 X174.34 Y41.769 E15.99757
G1 X174.365 Y41.908 E16.01448
G1 X174.498 Y42.807 E16.1233
G1 X174.516 Y42.969 E16.14281
G1 X174.583 Y43.871 E16.25111
G1 X174.592 Y44.055 E16.27317
G1 X174.6 Y44.556 E16.33317
G1 X174.6 Y69.985 E19.37795
G1 X174.564 Y70.988 E19.49812
G1 X174.552 Y71.143 E19.51673
G1 X174.525 Y71.396 E19.5472
G1 X174.499 Y71.952 E19.61384
G1 X174.478 Y71.952 E19.61636
G1 X174.583 Y73.371 E19.78673
G1 X174.592 Y73.555 E19.80879
G1 X174.6 Y74.056 E19.86878
G1 X174.6 Y145.985 E28.48131
G1 X174.564 Y146.988 E28.60148
G1 X174.552 Y147.143 E28.6201
G1 X174.525 Y147.396 E28.65056
G1 X174.499 Y147.952 E28.71721
G1 X174.478 Y147.952 E28.71972
G1 X174.583 Y149.371 E28.89009
G1 X174.592 Y149.555 E28.91215
G1 X174.6 Y150.056 E28.97215
G1 X174.6 Y175.486 E32.01705
G1 X174.564 Y176.492 E32.13758
G1 X174.554 Y176.627 E32.15379
G1 X174.452 Y177.544 E32.26426
G1 X174.427 Y177.719 E32.28543
G1 X174.265 Y178.597 E32.39233
G1 X174.235 Y178.731 E32.40877
G1 X174.004 Y179.616 E32.51829
G1 X173.952 Y179.788 E32.53981
G1 X173.676 Y180.6 E32.6425
G1 X173.596 Y180.809 E32.66929
G1 X173.261 Y181.599 E32.77204
G1 X173.18 Y181.774 E32.79513
G1 X172.765 Y182.582 E32.90389
G1 X172.698 Y182.699 E32.92003
G1 X172.224 Y183.478 E33.02922
G1 X172.124 Y183.629 E33.0509
G1 X171.613 Y184.343 E33.15603
G1 X171.5 Y184.491 E33.17833
G1 X170.924 Y185.182 E33.28604
G1 X170.823 Y185.295 E33.30419
G1 X170.198 Y185.944 E33.41207
G1 X170.073 Y186.064 E33.43282
G1 X169.403 Y186.666 E33.54067
G1 X169.286 Y186.763 E33.55887
G1 X168.574 Y187.313 E33.66659
G1 X168.415 Y187.426 E33.68995
G1 X167.677 Y187.916 E33.79602
G1 X167.551 Y187.992 E33.81364
G1 X166.757 Y188.438 E33.92268
G1 X166.606 Y188.516 E33.94303
G1 X165.792 Y188.899 E34.05075
G1 X165.649 Y188.959 E34.06931
G1 X164.79 Y189.288 E34.17945
G1 X164.64 Y189.34 E34.19846
G1 X163.79 Y189.595 E34.30472
G1 X163.617 Y189.642 E34.32618
G1 X162.722 Y189.842 E34.43599
G1 X162.592 Y189.865 E34.4518
G1 X161.687 Y189.999 E34.56134
G1 X161.519 Y190.017 E34.58157
G1 X160.629 Y190.083 E34.68843
G1 X160.445 Y190.092 E34.71049
G1 X159.94 Y190.1 E34.77096
G1 X59.997 Y190.099 E46.73779
G1 X58.996 Y190.063 E46.85772
G1 X58.873 Y190.054 E46.87249
G1 X57.956 Y189.952 E46.98296
G1 X57.781 Y189.927 E47.00413
G1 X56.892 Y189.763 E47.11237
G1 X56.769 Y189.735 E47.12748
G1 X55.875 Y189.501 E47.23813
G1 X55.712 Y189.452 E47.25851
G1 X54.87 Y189.166 E47.36498
G1 X54.704 Y189.102 E47.38628
G1 X53.901 Y188.761 E47.49074
G1 X53.712 Y188.673 E47.51571
G1 X52.918 Y188.265 E47.62259
G1 X52.801 Y188.198 E47.63874
G1 X52.022 Y187.724 E47.74792
G1 X51.871 Y187.624 E47.76961
G1 X51.157 Y187.113 E47.87474
G1 X51.009 Y187 E47.89703
G1 X50.318 Y186.424 E48.00475
G1 X50.205 Y186.323 E48.0229
G1 X49.556 Y185.698 E48.13078
G1 X49.436 Y185.573 E48.15153
G1 X48.833 Y184.902 E48.25955
G1 X48.736 Y184.784 E48.27784
G1 X48.178 Y184.062 E48.38709
G1 X48.074 Y183.915 E48.40866
G1 X47.581 Y183.172 E48.51542
G1 X47.508 Y183.051 E48.53234
G1 X47.056 Y182.246 E48.64289
G1 X46.984 Y182.107 E48.66163
G1 X46.587 Y181.261 E48.77353
G1 X46.541 Y181.149 E48.78802
G1 X46.212 Y180.29 E48.89816
G1 X46.155 Y180.125 E48.91906
G1 X45.905 Y179.29 E49.02343
G1 X45.858 Y179.117 E49.04489
G1 X45.657 Y178.216 E49.15543
G1 X45.635 Y178.092 E49.17051
G1 X45.5 Y177.178 E49.28113
G1 X45.483 Y177.018 E49.3004
G1 X45.417 Y176.126 E49.4075
G1 X45.408 Y175.945 E49.4292
G1 X45.4 Y175.444 E49.48919
G1 X45.4 Y150.015 E52.53397
G1 X45.436 Y149.012 E52.65414
G1 X45.448 Y148.857 E52.67276
G1 X45.475 Y148.604 E52.70322
G1 X45.501 Y148.048 E52.76987
G1 X45.522 Y148.048 E52.77238
G1 X45.417 Y146.626 E52.94311
G1 X45.408 Y146.445 E52.96481
G1 X45.4 Y145.944 E53.02481
G1 X45.4 Y74.015 E61.63733
G1 X45.436 Y73.012 E61.75751
G1 X45.448 Y72.857 E61.77612
G1 X45.475 Y72.604 E61.80659
G1 X45.501 Y72.048 E61.87323
G1 X45.522 Y72.048 E61.87575
G1 X45.417 Y70.626 E62.04648
G1 X45.408 Y70.445 E62.06818
G1 X45.4 Y69.944 E62.12817
G1 X45.4 Y44.514 E65.17307
G1 X45.436 Y43.508 E65.2936
G1 X45.446 Y43.373 E65.30981
G1 X45.548 Y42.456 E65.42029
G1 X45.573 Y42.281 E65.44145
G1 X45.735 Y41.403 E65.54836
G1 X45.765 Y41.269 E65.5648
G1 X45.996 Y40.384 E65.67432
G1 X46.048 Y40.212 E65.69583
G1 X46.334 Y39.37 E65.80231
G1 X46.398 Y39.204 E65.82361
G1 X46.739 Y38.401 E65.92807
G1 X46.82 Y38.226 E65.95116
G1 X47.235 Y37.418 E66.05992
G1 X47.302 Y37.301 E66.07606
G1 X47.776 Y36.522 E66.18525
G1 X47.876 Y36.371 E66.20693
G1 X48.387 Y35.657 E66.31206
G0 F9000 X48 Y36.197
G1 F1125 X48 Y183.803 E83.98589
G0 F9000 X49.6 Y185.74
G1 F1125 X49.6 Y34.265 E102.12297
G0 F9000 X51.2 Y32.861
G1 F1125 X51.2 Y187.143 E120.59616
G0 F9000 X52.8 Y188.197
G1 F1125 X52.8 Y31.81 E139.32139
G0 F9000 X54.4 Y31.022
G1 F1125 X54.4 Y188.972 E158.23376
G0 F9000 X56 Y189.533
G1 F1125 X56 Y30.468 E177.27965
G0 F9000 X57.6 Y30.106
G1 F1125 X57.6 Y189.893 E196.41198
G0 F9000 X59.2 Y190.07
G1 F1125 X59.2 Y29.929 E215.5867
G0 F9000 X60.8 Y29.901
G1 F1125 X60.8 Y190.099 E234.76825
G0 F9000 X62.4 Y190.099
G1 F1125 X62.4 Y29.901 E253.94979
G0 F9000 X64 Y29.901
G1 F1125 X64 Y190.099 E273.13134
G0 F9000 X65.6 Y190.099
G1 F1125 X65.6 Y29.901 E292.31288
G0 F9000 X67.2 Y29.901
G1 F1125 X67.2 Y190.099 E311.49443
G0 F9000 X68.8 Y190.099
G1 F1125 X68.8 Y29.901 E330.67598
G0 F9000 X70.4 Y29.901
G1 F1125 X70.4 Y190.099 E349.85752
G0 F9000 X72 Y190.099
G1 F1125 X72 Y29.901 E369.03907
G0 F9000 X73.6 Y29.901
G1 F1125 X73.6 Y190.099 E388.22061
G0 F9000 X75.2 Y190.099
G1 F1125 X75.2 Y29.901 E407.40216
G0 F9000 X76.8 Y29.901
G1 F1125 X76.8 Y190.099 E426.5837
G0 F9000 X78.4 Y190.099
G1 F1125 X78.4 Y29.901 E445.76525
G0 F9000 X80 Y29.901
G1 F1125 X80 Y190.099 E464.9468
G0 F9000 X81.6 Y190.099
G1 F1125 X81.6 Y29.901 E484.12834
G0 F9000 X83.2 Y29.901
G1 F1125 X83.2 Y190.099 E503.30989
G0 F9000 X84.8 Y190.099
G1 F1125 X84.8 Y29.901 E522.49143
G0 F9000 X86.4 Y29.901
G1 F1125 X86.4 Y190.099 E541.67298
G0 F9000 X88 Y190.099
G1 F1125 X88 Y29.901 E560.85452
G0 F9000 X89.6 Y29.901
G1 F1125 X89.6 Y190.099 E580.03607
G0 F9000 X91.2 Y190.099
G1 F1125 X91.2 Y29.901 E599.21761
G0 F9000 X92.8 Y29.901
G1 F1125 X92.8 Y190.099 E618.39916
G0 F9000 X94.4 Y190.099
G1 F1125 X94.4 Y29.901 E637.58071
G0 F9000 X96 Y29.901
G1 F1125 X96 Y190.099 E656.76225
G0 F9000 X97.6 Y190.099
G1 F1125 X97.6 Y29.901 E675.9438
G0 F9000 X99.2 Y29.901
G1 F1125 X99.2 Y190.099 E695.12534
G0 F9000 X100.8 Y190.099
G1 F1125 X100.8 Y29.901 E714.30689
G0 F9000 X102.4 Y29.901
G1 F1125 X102.4 Y190.099 E733.48843
G0 F9000 X104 Y190.099
G1 F1125 X104 Y29.901 E752.66998
G0 F9000 X105.6 Y29.901
G1 F1125 X105.6 Y190.099 E771.85152
G0 F9000 X107.2 Y190.099
G1 F1125 X107.2 Y29.901 E791.03307
G0 F9000 X108.8 Y29.901
G1 F1125 X108.8 Y190.099 E810.21462
G0 F9000 X110.4 Y190.099
G1 F1125 X110.4 Y29.901 E829.39616
G0 F9000 X112 Y29.901
G1 F1125 X112 Y190.099 E848.57771
G0 F9000 X113.6 Y190.099
G1 F1125 X113.6 Y29.901 E867.75925
G0 F9000 X115.2 Y29.901
G1 F1125 X115.2 Y190.099 E886.9408
G0 F9000 X116.8 Y190.099
G1 F1125 X116.8 Y29.901 E906.12234
G0 F9000 X118.4 Y29.901
G1 F1125 X118.4 Y190.099 E925.30389
G0 F9000 X120 Y190.099
G1 F1125 X120 Y29.901 E944.48544
G0 F9000 X121.6 Y29.901
G1 F1125 X121.6 Y190.099 E963.66698
G0 F9000 X123.2 Y190.099
G1 F1125 X123.2 Y29.901 E982.84853
G0 F9000 X124.8 Y29.901
G1 F1125 X124.8 Y190.099 E1002.03007
G0 F9000 X126.4 Y190.099
G1 F1125 X126.4 Y29.901 E1021.21162
G0 F9000 X128 Y29.901
G1 F1125 X128 Y190.099 E1040.39316
G0 F9000 X129.6 Y190.099
G1 F1125 X129.6 Y29.901 E1059.57471
G0 F9000 X131.2 Y29.901
G1 F1125 X131.2 Y190.099 E1078.75625
G0 F9000 X132.8 Y190.099
G1 F1125 X132.8 Y29.901 E1097.9378
G0 F9000 X134.4 Y29.901
G1 F1125 X134.4 Y190.099 E1117.11935
G0 F9000 X136 Y190.099
G1 F1125 X136 Y29.901 E1136.30089
G0 F9000 X137.6 Y29.901
G1 F1125 X137.6 Y190.099 E1155.48244
G0 F9000 X139.2 Y190.099
G1 F1125 X139.2 Y29.901 E1174.66398
G0 F9000 X140.8 Y29.901
G1 F1125 X140.8 Y190.099 E1193.84553
G0 F9000 X142.4 Y190.099
G1 F1125 X142.4 Y29.901 E1213.02707
G0 F9000 X144 Y29.901
G1 F1125 X144 Y190.099 E1232.20862
G0 F9000 X145.6 Y190.099
G1 F1125 X145.6 Y29.901 E1251.39017
G0 F9000 X147.2 Y29.901
G1 F1125 X147.2 Y190.099 E1270.57171
G0 F9000 X148.8 Y190.099
G1 F1125 X148.8 Y29.901 E1289.75326
G0 F9000 X150.4 Y29.901
G1 F1125 X150.4 Y190.099 E1308.9348
G0 F9000 X152 Y190.099
G1 F1125 X152 Y29.901 E1328.11635
G0 F9000 X153.6 Y29.901
G1 F1125 X153.6 Y190.099 E1347.29789
G0 F9000 X155.2 Y190.099
G1 F1125 X155.2 Y29.901 E1366.47944
G0 F9000 X156.8 Y29.901
G1 F1125 X156.8 Y190.099 E1385.66098
G0 F9000 X158.4 Y190.099
G1 F1125 X158.4 Y29.901 E1404.84253
G0 F9000 X160 Y29.901
G1 F1125 X160 Y190.1 E1424.0242
G0 F9000 X161.6 Y190.009
G1 F1125 X161.6 Y29.999 E1443.18323
G0 F9000 X163.2 Y30.258
G1 F1125 X163.2 Y189.736 E1462.27857
G0 F9000 X164.8 Y189.285
G1 F1125 X164.8 Y30.722 E1481.26434
G0 F9000 X166.4 Y31.385
G1 F1125 X166.4 Y188.613 E1500.09027
G0 F9000 X168 Y187.702
G1 F1125 X168 Y32.291 E1518.69864
G0 F9000 X169.6 Y33.508
G1 F1125 X169.6 Y186.489 E1537.01605
G0 F9000 X171.2 Y184.851
G1 F1125 X171.2 Y35.138 E1554.94215
G0 F9000 X172.8 Y37.498
G1 F1125 X172.8 Y182.514 E1572.30586
G1 F1500 E1565.80586
G0 F9000 X174.132 Y182.249
G0 X174.675 Y180.968
G0 X174.774 Y180.669
G0 X175.306 Y178.816
G0 X174.4 Y177.866
G1 F1500 E1572.30586
G1 F1125 X174.4 Y42.145 E1588.55662
G1 F1500 E1582.05662
G0 F9000 X175.453 Y41.99
G0 X175.121 Y40.427
G0 X174.45 Y38.461
G0 X173.878 Y37.243
G0 X172.796 Y35.472
G0 X171.968 Y34.397
G0 X170.514 Y32.892
G0 X169.481 Y32.034
G0 X167.743 Y30.887
G0 X166.538 Y30.269
G0 X164.62 Y29.536
G0 X163.316 Y29.194
G0 X161.231 Y28.887
G0 X159.987 Y28.836
G0 X59.31 Y28.854
G0 X57.242 Y29.083
G0 X55.927 Y29.379
G0 X53.961 Y30.05
G0 X52.743 Y30.622
G0 X50.977 Y31.701
G0 X49.897 Y32.532
G0 X48.392 Y33.986
G0 X47.534 Y35.019
G0 X46.387 Y36.757
G0 X46.212 Y37.098
G0 X45.42 Y38.784
G0 X46.4 Y39.199
G1 F1500 E1588.55662
G1 F1125 X46.4 Y180.78 E1605.50903
G0 F300 X46.4 Y180.78 Z0.585
G0 F9000 X48.073 Y183.914
;TIME_ELAPSED:732.154147
;LAYER:-6
;TYPE:SUPPORT
G1 F1125 X48.178 Y184.061 E1605.52255
G1 X48.735 Y184.783 E1605.59079
G1 X48.832 Y184.901 E1605.60222
G1 X49.435 Y185.572 E1605.66973
G1 X49.556 Y185.696 E1605.6827
G1 X50.205 Y186.321 E1605.75012
G1 X50.317 Y186.423 E1605.76146
G1 X51.008 Y186.999 E1605.82878
G1 X51.157 Y187.112 E1605.84277
G1 X51.825 Y187.59 E1605.90424
G1 X47.922 Y183.687 E1606.31731
G1 X47.581 Y183.171 E1606.3636
G1 X47.507 Y183.05 E1606.37421
G1 X47.055 Y182.244 E1606.44337
G1 X46.983 Y182.106 E1606.45501
G1 X46.587 Y181.259 E1606.52498
G1 X46.541 Y181.148 E1606.53398
G1 X46.381 Y180.731 E1606.5674
G1 X54.779 Y189.129 E1607.45619
G1 X54.87 Y189.165 E1607.46351
G1 X55.712 Y189.451 E1607.53006
G1 X55.875 Y189.5 E1607.5428
G1 X56.768 Y189.734 E1607.61188
G1 X56.806 Y189.742 E1607.61479
G1 X45.765 Y178.701 E1608.78329
G1 X45.657 Y178.215 E1608.82055
G1 X45.634 Y178.091 E1608.82998
G1 X45.5 Y177.177 E1608.89911
G1 X45.482 Y177.017 E1608.91116
G1 X45.481 Y177.002 E1608.91229
G1 X58.488 Y190.01 E1610.28891
G1 X58.873 Y190.052 E1610.3179
G1 X58.996 Y190.062 E1610.32713
G1 X59.99 Y190.097 E1610.40156
G1 X45.401 Y175.508 E1611.94556
G1 X45.4 Y175.443 E1611.95043
G1 X45.4 Y174.093 E1612.05145
G1 X61.405 Y190.098 E1613.74531
G1 X62.819 Y190.098 E1613.85113
G1 X45.4 Y172.679 E1615.69464
G1 X45.4 Y171.265 E1615.80045
G1 X64.233 Y190.098 E1617.79361
G1 X65.647 Y190.098 E1617.89943
G1 X45.4 Y169.851 E1620.04223
G1 X45.4 Y168.437 E1620.14805
G1 X67.062 Y190.098 E1622.44055
G1 X68.476 Y190.098 E1622.54637
G1 X45.4 Y167.022 E1624.98857
G1 X45.4 Y165.608 E1625.09439
G1 X69.89 Y190.098 E1627.68624
G1 X71.304 Y190.098 E1627.79206
G1 X45.4 Y164.194 E1630.53356
G1 X45.4 Y162.78 E1630.63938
G1 X72.718 Y190.098 E1633.53053
G1 X74.133 Y190.098 E1633.63642
G1 X45.4 Y161.366 E1636.67727
G1 X45.4 Y159.951 E1636.78316
G1 X75.547 Y190.098 E1639.97371
G1 X76.961 Y190.098 E1640.07953
G1 X45.4 Y158.537 E1643.41973
G1 X45.4 Y157.123 E1643.52554
G1 X78.375 Y190.098 E1647.01539
G1 X79.789 Y190.098 E1647.12121
G1 X45.4 Y155.709 E1650.7607
G1 X45.4 Y154.294 E1650.86659
G1 X81.204 Y190.098 E1654.65584
G1 X82.618 Y190.098 E1654.76166
G1 X45.4 Y152.88 E1658.70055
G1 X45.4 Y151.466 E1658.80637
G1 X84.032 Y190.098 E1662.89492
G1 X85.446 Y190.098 E1663.00073
G1 X45.4 Y150.052 E1667.23893
G1 X45.4 Y150.014 E1667.24177
G1 X45.435 Y149.011 E1667.31687
G1 X45.447 Y148.856 E1667.32851
G1 X45.464 Y148.701 E1667.34018
G1 X86.86 Y190.098 E1671.7213
G1 X88.275 Y190.098 E1671.82719
G1 X45.465 Y147.288 E1676.3579
G1 X45.416 Y146.624 E1676.40773
G1 X45.408 Y146.443 E1676.42129
G1 X45.399 Y145.943 E1676.45871
G1 X45.399 Y145.808 E1676.46882
G1 X89.689 Y190.098 E1681.15616
G1 X91.103 Y190.098 E1681.26198
G1 X45.399 Y144.394 E1686.09898
G1 X45.399 Y142.98 E1686.20479
G1 X92.517 Y190.098 E1691.19144
G1 X93.932 Y190.098 E1691.29733
G1 X45.399 Y141.566 E1696.43367
G1 X45.399 Y140.152 E1696.53949
G1 X95.346 Y190.098 E1701.82548
G1 X96.76 Y190.098 E1701.9313
G1 X45.399 Y138.737 E1707.367
G1 X45.399 Y137.323 E1707.47281
G1 X98.174 Y190.098 E1713.05815
G1 X99.588 Y190.098 E1713.16397
G1 X45.399 Y135.909 E1718.89896
G1 X45.399 Y134.495 E1719.00478
G1 X101.003 Y190.098 E1724.88947
G1 X102.417 Y190.098 E1724.99529
G1 X45.399 Y133.081 E1731.02963
G1 X45.399 Y131.666 E1731.13552
G1 X103.831 Y190.098 E1737.31956
G1 X105.245 Y190.098 E1737.42537
G1 X45.399 Y130.252 E1743.75906
G1 X45.399 Y128.838 E1743.86488
G1 X106.659 Y190.098 E1750.34822
G1 X108.074 Y190.098 E1750.45411
G1 X45.399 Y127.424 E1757.08714
G1 X45.399 Y126.009 E1757.19304
G1 X109.488 Y190.098 E1763.97577
G1 X110.902 Y190.098 E1764.08159
G1 X45.399 Y124.595 E1771.01398
G1 X45.399 Y123.181 E1771.11979
G1 X112.316 Y190.098 E1778.20183
G1 X113.731 Y190.098 E1778.30772
G1 X45.399 Y121.767 E1785.53945
G1 X45.399 Y120.353 E1785.64527
